packages/tokens/icons/fullScreen/size16Px.svg

<svg viewBox="0 0 16 16" fill="none" xmlns="http://www.w3.org/2000/svg" width="1em" height="1em"><path d="M9.5 6.5L14.5 1.5M14.5 1.5L14.5 6.5M14.5 1.5L9.5 1.5" stroke="currentColor" stroke-linecap="round" stroke-linejoin="round"/><path d="M6.5 9.5L1.5 14.5M1.5 14.5L1.5 9.5M1.5 14.5L6.5 14.5" stroke="currentColor" stroke-linecap="round" stroke-linejoin="round"/></svg>

<svg xmlns="http://www.w3.org/2000/svg" fill="none" viewBox="0 0 16 16" width="1em" height="1em"><path stroke="currentColor" stroke-linecap="round" stroke-linejoin="round" d="m9.5 6.5 5-5m0 0v5m0-5h-5m-3 8-5 5m0 0v-5m0 5h5"/></svg>
